X: 34415
T: Richard Dwyer's
R: reel
M: 4/4
K: Dmajor
|:A2|d/d/d fd cdeA|defd AdBA|GB B/B/B Adfd|gfed cdec|
d/d/d fd cdeA|defd AdBA|GB B/B/B Ad d/d/d|cdec d2:|
|:ge|fB B/B/B BcdB|Aaag agfe|fB B/B/B BcdB|AaaA agfe|
[1d/d/d fd cdeA|defd AdBA|GB B/B/B Ad d/d/d|cdec d2:|
[2d/d/d fd c/c/c ec|B/B/B dB A2BA|GB B/B/B Ad d/d/d|cdec d2||

